src/assets/sb-sig.svg

<svg width="276" height="219" viewBox="0 0 276 219" fill="none" xmlns="http://www.w3.org/2000/svg">
<g clip-path="url(#clip0_286_549)">
<path d="M163.507 45.989C163.12 46.3869 163.012 45.9605 162.967 45.5853C162.791 44.181 162.916 41.8784 162.955 40.3832C163.098 35.0333 163.643 29.4048 163.234 24.0264C161.767 4.5825 138.898 18.1023 129.49 23.293C101.766 38.5923 75.2701 57.7406 52.5827 79.8225C48.8934 83.4157 44.7948 87.458 41.5432 91.432C39.1158 94.4055 33.7893 100.881 40.429 102.359C45.0563 103.388 53.5718 102.473 58.5857 102.206C78.6638 101.131 98.7589 98.3113 118.888 100.028C147.846 102.496 174.376 112.536 157.737 146.79C150.904 160.856 141.018 167.383 128.285 175.462C104.256 190.698 73.6101 202.694 46.3865 211.171C36.0745 214.384 15.4621 220.507 5.1786 218.67C1.72803 218.056 0.44899 215.344 0.0965427 212.018C-0.818682 203.377 4.62719 193.416 7.98112 185.718C8.49274 185.661 8.2085 186.269 8.11755 186.537C7.49224 188.447 6.58839 190.334 5.9915 192.324C-2.8083 221.695 20.1007 215.401 38.4735 209.528C54.9418 204.264 72.6267 196.998 88.3845 189.857C108.69 180.647 145.344 162.334 154.741 141.332C160.284 128.938 156.168 116.561 143.775 110.893C123.18 101.478 85.6843 106.265 62.9742 107.129C55.9935 107.396 36.7283 108.352 31.2597 104.713C28.8949 103.144 30.5832 99.2892 31.578 97.2879C37.5128 85.3714 57.6022 68.4006 68.1529 59.6395C88.3504 42.8734 114.812 23.202 138.585 12.1895C148.408 7.63554 163.314 0.892701 166.929 16.2432C169.123 25.5558 166.531 37.0857 163.513 45.989H163.507Z" fill="white"/>
<path d="M224.634 87.7421C245.65 80.8571 274.692 89.4136 275.943 114.884C276.733 131.008 268.957 142.936 259.281 154.733C232.882 186.917 192.464 204.696 151.507 209.181L165.36 205.162C195.449 195.138 223.832 183.722 245.786 160.066C259.088 145.733 280.582 117.192 261.345 99.471C248.105 87.2759 224.838 90.4824 209.086 95.3832C223.906 84.9165 237.276 72.2381 248.367 57.8485C255.569 48.5074 268.616 29.416 263.244 17.3403C259.412 8.72698 240.545 5.87293 232.143 5.05424C218.261 3.70112 202.941 4.31514 189.031 5.60003C184.739 5.99801 180.453 6.82807 176.172 7.2033C175.865 7.23173 175.194 7.45346 175.251 6.96452C183.886 3.84894 192.987 1.95003 202.128 0.960778C216.829 -0.631122 234.712 -0.329799 249.242 2.41054C287.71 9.65938 268.104 43.1746 251.789 62.0954C243.626 71.5616 234.155 79.6916 224.634 87.7421Z" fill="white"/>
<path d="M172.784 175.615C172.29 175.615 172.494 174.444 172.517 174.12C172.847 169.532 174.023 164.085 174.785 159.469C179.93 128.273 186.353 96.7875 193.112 65.9103C195.21 56.3362 197.228 46.455 199.661 36.9832C199.928 35.9541 200.048 34.3679 200.889 33.7141C193.345 81.3631 183.437 128.614 172.784 175.621V175.615Z" fill="white"/>
</g>
<defs>
<clipPath id="clip0_286_549">
<rect width="276" height="219" fill="white"/>
</clipPath>
</defs>
</svg>

<svg xmlns="http://www.w3.org/2000/svg" width="276" height="219" fill="none"><g fill="#fff" clip-path="url(#a)"><path d="M163.507 45.989c-.387.398-.495-.028-.54-.404-.176-1.404-.051-3.707-.012-5.202.143-5.35.688-10.978.279-16.357-1.467-19.443-24.336-5.924-33.744-.733-27.724 15.3-54.22 34.448-76.907 56.53-3.69 3.593-7.788 7.635-11.04 11.609-2.427 2.974-7.754 9.449-1.114 10.927 4.627 1.029 13.143.114 18.157-.153 20.078-1.075 40.173-3.895 60.302-2.178 28.958 2.468 55.488 12.508 38.849 46.762-6.833 14.066-16.719 20.593-29.452 28.672-24.029 15.236-54.675 27.232-81.898 35.709-10.312 3.213-30.925 9.336-41.208 7.499-3.451-.614-4.73-3.326-5.082-6.652-.916-8.641 4.53-18.602 7.884-26.3.512-.057.228.551.137.819-.626 1.91-1.53 3.797-2.126 5.787-8.8 29.371 14.109 23.077 32.481 17.204 16.469-5.264 34.154-12.53 49.912-19.671 20.305-9.21 56.959-27.523 66.356-48.525 5.543-12.394 1.427-24.771-10.966-30.439-20.595-9.415-58.09-4.628-80.8-3.764-6.982.267-26.247 1.223-31.715-2.416-2.365-1.569-.677-5.424.318-7.425C37.513 85.37 57.602 68.4 68.153 59.64c20.197-16.767 46.659-36.438 70.432-47.45 9.823-4.554 24.729-11.297 28.344 4.053 2.194 9.313-.398 20.843-3.416 29.746z"/><path d="M224.634 87.742c21.016-6.885 50.058 1.672 51.309 27.142.79 16.124-6.986 28.052-16.662 39.849-26.399 32.184-66.817 49.963-107.774 54.448l13.853-4.019c30.089-10.024 58.472-21.44 80.426-45.096 13.302-14.333 34.796-42.874 15.559-60.595-13.24-12.195-36.507-8.989-52.259-4.088 14.82-10.466 28.19-23.145 39.281-37.534 7.202-9.342 20.249-28.433 14.877-40.509-3.832-8.613-22.699-11.467-31.101-12.286-13.882-1.353-29.202-.739-43.112.546-4.292.398-8.578 1.228-12.859 1.603-.307.029-.978.25-.921-.238 8.635-3.116 17.736-5.015 26.877-6.004 14.701-1.592 32.584-1.29 47.114 1.45 38.468 7.248 18.862 40.764 2.547 59.684-8.163 9.467-17.634 17.597-27.155 25.647"/><path d="M172.784 175.615c-.494 0-.29-1.171-.267-1.495.33-4.588 1.506-10.035 2.268-14.651 5.145-31.196 11.568-62.681 18.327-93.559 2.098-9.574 4.116-19.455 6.549-28.927.267-1.029.387-2.615 1.228-3.269-7.544 47.65-17.452 94.9-28.105 141.907z"/></g><defs><clipPath id="a"><path fill="#fff" d="M0 0h276v219H0z"/></clipPath></defs></svg>
